packages/core/src/svgs/tokens/branded/RLC.svg

<svg width="24" height="24" viewBox="0 0 24 24" fill="none" xmlns="http://www.w3.org/2000/svg">
<path d="M17.6179 9.17299C17.6727 9.11802 17.7723 9.11802 17.8721 9.11802C18.6164 9.13242 19.3249 9.44058 19.8427 9.9753C20.3606 10.5102 20.6459 11.2281 20.6362 11.9726C20.6362 13.4272 19.5629 14.5727 18.1813 14.8271H17.8721C17.3635 14.8271 16.8543 14.6725 16.3906 14.4182C16.2417 14.3137 16.0633 14.2596 15.8814 14.2636C15.682 14.2636 15.4726 14.3091 15.318 14.4182C14.9627 14.627 14.8089 14.991 14.8089 15.3998V15.8728C14.7549 16.5146 14.4812 17.1183 14.0342 17.5819C13.5872 18.0455 12.994 18.3408 12.3545 18.4182H12.0541C11.5361 18.4182 11.027 18.2636 10.5719 18C10.3632 17.9002 10.2087 17.8454 10.0086 17.8454C9.80991 17.8425 9.61446 17.8961 9.44518 18C9.08119 18.2088 8.93591 18.5728 8.93591 18.9909V19.4546C8.87992 20.1048 8.59852 20.715 8.14044 21.1798C7.68226 21.6446 7.07614 21.9347 6.42679 22H6.1725C5.42976 21.9834 4.72359 21.6742 4.20768 21.1397C3.69178 20.6051 3.40787 19.8884 3.41775 19.1455C3.41996 18.4602 3.66945 17.7987 4.12036 17.2827C4.57127 16.7666 5.1933 16.4307 5.87209 16.3366H6.1725C6.6817 16.3366 7.19961 16.491 7.65396 16.7541C7.80349 16.8588 7.9812 16.9131 8.16312 16.9093C8.37253 16.9093 8.57264 16.8545 8.72722 16.7547C9.09049 16.5453 9.23577 16.1814 9.23577 15.7638C9.17877 15.0426 9.40214 14.3273 9.8595 13.7667C10.3169 13.2062 10.9727 12.8436 11.6907 12.7548H11.9999C12.5084 12.7548 13.0177 12.9092 13.4813 13.1723C13.6907 13.2727 13.8453 13.3275 14.0447 13.3275C14.2448 13.3275 14.4542 13.2727 14.6088 13.1729C14.9635 12.9635 15.1179 12.5995 15.1179 12.182C15.0709 11.4559 15.3037 10.7394 15.7687 10.1796C16.2336 9.62003 16.8954 9.25967 17.6179 9.17299ZM11.7449 5.5818C11.8447 5.5363 11.8995 5.5363 12.0541 5.5363C12.7968 5.55299 13.5028 5.86224 14.0188 6.39679C14.5346 6.93134 14.8186 7.64795 14.8089 8.39077C14.8065 9.07511 14.5567 9.7355 14.1056 10.2502C13.6546 10.7648 13.0327 11.099 12.3545 11.191H12.0541C11.5361 11.191 11.027 11.0365 10.5719 10.7815C10.4208 10.6754 10.2393 10.6211 10.0547 10.6269C9.85397 10.6269 9.65401 10.6725 9.50001 10.7815C9.13601 10.9909 8.98143 11.3549 8.98143 11.7637V12.2362C8.92602 12.8851 8.64593 13.4943 8.18974 13.9591C7.73341 14.4237 7.12939 14.7148 6.48164 14.7822H6.22673C5.85581 14.7762 5.4897 14.6972 5.14941 14.5495C4.80912 14.4017 4.50134 14.1882 4.24374 13.9214C3.98612 13.6544 3.78374 13.3393 3.64819 12.9939C3.51266 12.6486 3.44664 12.2798 3.45391 11.909C3.45391 10.5092 4.48164 9.36365 5.86337 9.16354H6.16316C6.67235 9.16354 7.19026 9.31813 7.64524 9.57248C7.79418 9.67718 7.97247 9.73142 8.1544 9.72706C8.36323 9.72706 8.56333 9.68154 8.71792 9.57248C9.08119 9.36365 9.22705 9.0003 9.22705 8.59083C9.1776 7.86175 9.41057 7.14159 9.87782 6.57966C10.3449 6.01771 11.0104 5.65706 11.7362 5.57245L11.7449 5.5818ZM6.12701 2C7.64524 2 8.88181 3.25459 8.88181 4.80897C8.88181 6.36334 7.64524 7.60922 6.12701 7.60922C4.60005 7.60922 3.36353 6.36397 3.36353 4.81831C3.36353 3.27267 4.59943 2 6.12701 2Z" fill="#F5D107"/>
</svg>

<svg xmlns="http://www.w3.org/2000/svg" width="24" height="24" fill="none" viewBox="0 0 24 24">
    <path fill="#F5D107" d="M17.618 9.173c.055-.055.154-.055.254-.055a2.82 2.82 0 0 1 2.764 2.855c0 1.454-1.073 2.6-2.455 2.854h-.309c-.509 0-1.018-.155-1.481-.409a.85.85 0 0 0-.51-.154 1 1 0 0 0-.563.154c-.355.209-.51.573-.51.982v.473a2.8 2.8 0 0 1-2.453 2.545h-.3A2.97 2.97 0 0 1 10.571 18c-.209-.1-.363-.155-.563-.155a1.05 1.05 0 0 0-.564.155c-.364.209-.51.573-.51.99v.465A2.8 2.8 0 0 1 6.428 22h-.254a2.82 2.82 0 0 1-2.755-2.855 2.845 2.845 0 0 1 2.454-2.808h.3c.51 0 1.028.154 1.482.417.15.105.327.16.51.155.209 0 .409-.054.563-.154.363-.21.509-.574.509-.991a2.81 2.81 0 0 1 2.455-3.01H12c.508 0 1.018.155 1.481.418.21.1.364.155.564.155s.41-.054.564-.154c.354-.21.509-.573.509-.991a2.846 2.846 0 0 1 2.5-3.009m-5.873-3.591c.1-.046.155-.046.31-.046a2.82 2.82 0 0 1 2.754 2.855 2.836 2.836 0 0 1-2.454 2.8h-.3a3.05 3.05 0 0 1-1.483-.41.85.85 0 0 0-.517-.154.96.96 0 0 0-.555.154c-.364.21-.519.574-.519.983v.472a2.8 2.8 0 0 1-2.5 2.546h-.254a2.82 2.82 0 0 1-2.773-2.873c0-1.4 1.028-2.545 2.41-2.745h.3c.508 0 1.026.154 1.481.408a.85.85 0 0 0 .51.155.97.97 0 0 0 .563-.155c.363-.208.51-.572.51-.981a2.844 2.844 0 0 1 2.508-3.019zM6.127 2c1.518 0 2.755 1.255 2.755 2.809s-1.237 2.8-2.755 2.8c-1.527 0-2.763-1.245-2.763-2.79C3.364 3.272 4.599 2 6.127 2"/>
</svg>
